X:701
T:Nonesuch
M:2/4
L:1/8
K:Am
P:A
e|"Am"ec/c/ de|cB/c/ Ae|ec/c/ de|c2 Ae|ec/c/ de|cB/c/ Ae|ec/c/ de|c2 A||
P:B
e|"G"BG/G/ AB|"Am"cB/c/ Ac|"Em"BG/G/ AB|"Am"c2 Ac|\
"G"BG/G/ AB|"F6"cB/c/ Ac|"G"BG/G/ AB|"Am"c2 A:|
P:C
K:A
|:e|"A"ec/c/ de|cB/c/ Ae|ec/c/ de|c2 ce|\
ec/c/ de|"F#m7"cB/c/ Ae|"D"ec/c/ "E"de|"A"c2 c||
P:D
c|"E"BE/E/ AB|"A"cB/c/ Ac|"E"BE/E/ AB|"A"c2 cc|\
"E"BE/E/ AB|"F#m7"cB/c/ Ae|"D"ec/c/ "E"de|"A"c2 c:|

%%staffwidth 18.00cm



